Adwaita++-Dark/status/symbolic/arch-lit-symbolic.svg

<svg height="16" width="16" xmlns="http://www.w3.org/2000/svg">
  <path d="m8 1c-1.825 1.725-5 3-6 3.25 0 4.75 2.25 10 6 10.75 3.75-.75 6-6 6-10.75-1-.25-4.175-1.525-6-3.25zm-1 4h2v3h2l-3 4-3-4h2z" fill="#e6ddff"/>
</svg>

<svg xmlns="http://www.w3.org/2000/svg" width="16" height="16" version="1.1">
 <path style="fill:#E6DDFF" d="M 8,1 C 6.175,2.725 3,4 2,4.25 2,9 4.25,14.25 8,15 11.75,14.25 14,9 14,4.25 13,4 9.825,2.725 8,1 Z M 7,5 H 9 V 8 H 11 L 8,12 5,8 H 7 Z"/>
</svg>
